X:641
T:Jerry McMahon's Reel
R:reel
Z:id:hn-reel-641
M:C|
K:Amix
~A3G AB=cA|E2DE GED2|EAAG AB^cd|1 (3efg ed cAdc:|2 edcA ~G3z||
Addc d2cA|decA G2EG|A2dc ABcd|(3efg ed cAG2|
Addc d2cA|AdcA G2EG|A2dc ABcd|(3efg ed cAdc||
